material/.icons/material/scan-helper.svg

<svg xmlns="http://www.w3.org/2000/svg" viewBox="0 0 24 24"><path d="M0 2a2 2 0 012-2h4v2H2v4H0V2m24 20a2 2 0 01-2 2h-4v-2h4v-4h2v4M2 24a2 2 0 01-2-2v-4h2v4h4v2H2M22 0a2 2 0 012 2v4h-2V2h-4V0h4z"/></svg>

<?xml version="1.0" encoding="UTF-8"?><!DOCTYPE svg PUBLIC "-//W3C//DTD SVG 1.1//EN" "http://www.w3.org/Graphics/SVG/1.1/DTD/svg11.dtd"><svg xmlns="http://www.w3.org/2000/svg" xmlns:xlink="http://www.w3.org/1999/xlink" version="1.1" id="mdi-scan-helper" width="24" height="24" viewBox="0 0 24 24"><path d="M0 2A2 2 0 0 1 2 0H6V2H2V6H0V2M24 22A2 2 0 0 1 22 24H18V22H22V18H24V22M2 24A2 2 0 0 1 0 22V18H2V22H6V24H2M22 0A2 2 0 0 1 24 2V6H22V2H18V0H22Z" /></svg>
